X: 21102
U: Q=!diminuendo(!
U: q=!diminuendo)!
M: 6/8
L: 1/8
K: Bb
V: 1 name="2"
d2d _ede | f3 f=ef | d2d cBc | B3 z H|]
b2b bag | f3 fcd | ecd ecf | d3 Bdf |\
b2b bag | =efg cde | f3 agf | =efg cA"^D.C."B |]
!pp!c3 ({c}BAB) | Q.c(fq=e) Q.d(dqc) |\
Q.B(BqA) Q.G(gqf) | Q=e(gqe) Q.c(dqB) |\
Q.A(fq=e) Q.d(gqf) | ({ef}Qg2q=e) ({fg}Qa2qf) |\
{ga}Qb2qg Q=efqg | fgf _ed"^D.C."c |]


